icon-themes/sifr_svg/cmd/sc_showcolumn.svg

<svg viewBox="0 0 16 16" xmlns="http://www.w3.org/2000/svg"><path d="m3.96875 1 .03125 1h-3v13h3v1h8.03125l-.03125-1h3v-13h-3v-1zm-1.96875 2h2v2 1h-2zm4 0h4v2h-4zm6 0h2v3h-2v-1zm-6 4h4v3h-4zm-4 0h2v3h-2zm10 0h2v3h-2zm-10 4h2v1 2h-2zm10 0h2v3h-2v-2zm-6 1h4v2h-4z" fill="#555753"/></svg>

<svg xmlns="http://www.w3.org/2000/svg" viewBox="0 0 16 16">
  <path
     style="fill:#555753"
     d="M 3.96875,1 4,2 H 1 v 13 h 3 v 1 h 8.03125 L 12,15 h 3 V 2 H 12 V 1 Z M 2,3 H 4 V 5 6 H 2 Z m 4,0 h 4 V 5 H 6 Z m 6,0 h 2 V 6 H 12 V 5 Z M 6,7 h 4 v 3 H 6 Z M 2,7 h 2 v 3 H 2 Z m 10,0 h 2 v 3 H 12 Z M 2,11 h 2 v 1 2 H 2 Z m 10,0 h 2 v 3 h -2 v -2 z m -6,1 h 4 v 2 H 6 Z"
     />
</svg>
